tools/download-figma-icons/icons/outlined-large/item-list.svg

<svg width="64" height="64" viewBox="0 0 64 64" fill="none" xmlns="http://www.w3.org/2000/svg"><path fill-rule="evenodd" clip-rule="evenodd" d="M9 16V9h7l.002 7H9Zm0 3h7c1.654 0 3-1.346 3-3V9c0-1.654-1.346-3-3-3H9C7.346 6 6 7.346 6 9v7c0 1.654 1.346 3 3 3Zm47.5-8h-32a1.5 1.5 0 0 1 0-3h32a1.5 1.5 0 0 1 0 3Zm-14 6h-18a1.5 1.5 0 0 1 0-3h18a1.5 1.5 0 0 1 0 3Zm14 32h-32a1.5 1.5 0 0 1 0-3h32a1.5 1.5 0 0 1 0 3Zm-32 6h13a1.5 1.5 0 0 0 0-3h-13a1.5 1.5 0 0 0 0 3ZM9 47v7h7.002L16 47H9Zm7 10H9c-1.654 0-3-1.346-3-3v-7c0-1.654 1.346-3 3-3h7c1.654 0 3 1.346 3 3v7c0 1.654-1.346 3-3 3Zm8.5-27h28a1.5 1.5 0 0 0 0-3h-28a1.5 1.5 0 0 0 0 3Zm23 6h-23a1.5 1.5 0 0 1 0-3h23a1.5 1.5 0 0 1 0 3ZM9 35v-7h7l.002 7H9Zm0 3h7c1.654 0 3-1.346 3-3v-7c0-1.654-1.346-3-3-3H9c-1.654 0-3 1.346-3 3v7c0 1.654 1.346 3 3 3Z" fill="currentColor"/></svg>

<svg width="64" height="64" viewBox="0 0 64 64" fill="none" xmlns="http://www.w3.org/2000/svg">
<path fill-rule="evenodd" clip-rule="evenodd" d="M9 16V9H16L16.002 16H9ZM9 19H16C17.654 19 19 17.654 19 16V9C19 7.346 17.654 6 16 6H9C7.346 6 6 7.346 6 9V16C6 17.654 7.346 19 9 19ZM56.5 11H24.5C23.672 11 23 10.328 23 9.5C23 8.672 23.672 8 24.5 8H56.5C57.328 8 58 8.672 58 9.5C58 10.328 57.328 11 56.5 11ZM42.5 17H24.5C23.672 17 23 16.328 23 15.5C23 14.672 23.672 14 24.5 14H42.5C43.328 14 44 14.672 44 15.5C44 16.328 43.328 17 42.5 17ZM56.5 49H24.5C23.672 49 23 48.328 23 47.5C23 46.672 23.672 46 24.5 46H56.5C57.328 46 58 46.672 58 47.5C58 48.328 57.328 49 56.5 49ZM24.5 55H37.5C38.328 55 39 54.328 39 53.5C39 52.672 38.328 52 37.5 52H24.5C23.672 52 23 52.672 23 53.5C23 54.328 23.672 55 24.5 55ZM9 47V54H16.002L16 47H9ZM16 57H9C7.346 57 6 55.654 6 54V47C6 45.346 7.346 44 9 44H16C17.654 44 19 45.346 19 47V54C19 55.654 17.654 57 16 57ZM24.5 30H52.5C53.328 30 54 29.328 54 28.5C54 27.672 53.328 27 52.5 27H24.5C23.672 27 23 27.672 23 28.5C23 29.328 23.672 30 24.5 30ZM47.5 36H24.5C23.672 36 23 35.328 23 34.5C23 33.672 23.672 33 24.5 33H47.5C48.328 33 49 33.672 49 34.5C49 35.328 48.328 36 47.5 36ZM9 35V28H16L16.002 35H9ZM9 38H16C17.654 38 19 36.654 19 35V28C19 26.346 17.654 25 16 25H9C7.346 25 6 26.346 6 28V35C6 36.654 7.346 38 9 38Z" fill="black"/>
</svg>
